lib/brands/icons/v8.svg

<svg xmlns="http://www.w3.org/2000/svg" fill="none" aria-hidden="true" viewBox="0 0 48 48"><g id="v8-Icon"><g id="Group"><path id="Vector" fill="#9E9E9E" d="M36.1641 16.8351L35.2922 18.6773H37.7812L37.9078 18.4664L38.8219 16.8351H36.1359H36.1641ZM11.7938 16.8351H9.16406L10.2188 18.6773H12.6797L11.7938 16.8351Z"/><path id="Vector_2" fill="#424242" d="M42 11.3227L38.7234 17.0461H36.4312L32.7609 24.007L24 39.9539L15.225 24.007L11.5687 17.0461H9.27656L6 11.3227H15.4078L16.9406 14.3602L21.9328 23.4586L23.9719 27.1992L25.9406 23.4586L30.8484 14.3602L32.5781 11.3086"/><path id="Vector_3" fill="white" fill-opacity="0.2" d="M15.5203 11.5195H6.1125L6 11.3226H15.4078L15.5203 11.5195ZM32.5922 11.3226L32.4797 11.5336H41.8875L42 11.3226H32.5922Z"/><path id="Vector_4" fill="#263238" fill-opacity="0.2" d="M37.922 18.4805L37.8095 18.6914H35.5876L32.7751 24.0211L24.0001 39.9539L15.2251 24.0071L12.4267 18.6774H10.2048L10.0923 18.4664H12.4267L12.5392 18.6774L15.2251 23.7961L24.0001 39.7571L32.7751 23.8102L35.4751 18.6914L35.5876 18.4805"/><path id="Vector_5" fill="white" d="M27.4732 26.0461C27.4732 27.9726 25.9123 29.5195 23.9998 29.5195C22.0873 29.5195 20.5264 27.9586 20.5264 26.0461C20.5264 24.1336 22.0873 22.5726 23.9998 22.5726C25.9264 22.5726 27.4732 24.1195 27.4732 26.0461ZM27.0654 15.4148C27.0654 17.1023 25.6873 18.4805 23.9998 18.4805C22.3123 18.4805 20.9342 17.1023 20.9342 15.4148C20.9342 13.7273 22.3123 12.3351 23.9998 12.3351C25.6873 12.3351 27.0654 13.7133 27.0654 15.4148Z"/><path id="Vector_6" fill="#4285F4" d="M32.775 24.007C32.3109 22.0242 31.2 20.2805 29.6672 19.043C30.4828 17.9039 30.9609 16.5117 30.9609 14.993C30.9609 14.782 30.9469 14.5711 30.9328 14.3601C30.6094 10.8164 27.6281 8.04608 24 8.04608C20.3719 8.04608 17.3906 10.8164 17.0813 14.3601C17.0672 14.5711 17.0531 14.782 17.0531 15.007C17.0531 16.5117 17.5313 17.918 18.3469 19.057C16.8141 20.2945 15.6891 22.0242 15.2391 24.0211C15.0844 24.668 15 25.343 15 26.0461C15 29.857 17.3766 33.1195 20.7234 34.4273C21.7359 34.8211 22.8469 35.0461 24 35.0461C25.1531 35.0461 26.2641 34.8211 27.2766 34.4273C30.6234 33.1195 33 29.857 33 26.0461C33 25.343 32.9156 24.668 32.775 24.007ZM24 12.5461C25.575 12.5461 26.8687 13.8258 26.8687 15.4148C26.8687 17.0039 25.5891 18.2836 24 18.2836C22.425 18.2836 21.1312 17.0039 21.1312 15.4148C21.1312 13.8258 22.425 12.5461 24 12.5461ZM24 29.3226C22.2 29.3226 20.7234 27.8601 20.7234 26.0461C20.7234 24.9914 21.2156 24.0633 21.9891 23.4586C22.5375 23.0226 23.2406 22.7695 24 22.7695C24.7594 22.7695 25.4625 23.0226 26.0109 23.4586C26.7844 24.0633 27.2766 24.9914 27.2766 26.0461C27.2766 27.8601 25.8141 29.3226 24 29.3226Z"/><path id="Vector_7" fill="white" fill-opacity="0.2" d="M30.9609 15.007V15.1055C30.8906 11.3086 27.8109 8.25702 24 8.25702C20.1891 8.25702 17.0953 11.3086 17.0391 15.1055V15.007C17.0391 11.1539 20.1609 8.04608 24 8.04608C27.8391 8.04608 30.9609 11.1539 30.9609 15.007ZM18.2484 19.1273C16.2656 20.7726 15 23.2617 15 26.0461V26.1445C15.0281 23.3601 16.3359 20.8711 18.3469 19.2539L18.4453 19.1836L18.3469 19.057L18.2484 19.1273ZM29.7516 19.1273L29.6672 19.057L29.5688 19.1836L29.6672 19.268C31.6781 20.8992 32.9859 23.3742 33.0141 26.1586V26.0461C33 23.2617 31.7344 20.7726 29.7516 19.1273Z"/><path id="Vector_8" fill="#263238" fill-opacity="0.2" d="M33 25.9477V26.0461C33 31.0102 28.9641 35.0461 24 35.0461C19.0359 35.0461 15 31.0102 15 26.0461V25.9477C15.0563 30.8695 19.0641 34.8492 24 34.8492C28.9359 34.8492 32.9437 30.8695 33 25.9477ZM17.0391 14.8945V14.993C17.0391 16.5539 17.5594 18.0023 18.4313 19.1695C18.4594 19.1555 18.5016 19.1273 18.5297 19.0992C17.6156 17.9461 17.0672 16.4836 17.0391 14.8945ZM30.9609 14.8945C30.9328 16.4836 30.3844 17.932 29.4703 19.0992C29.5125 19.1273 29.5406 19.1555 29.5688 19.1695C30.4406 18.0305 30.9609 16.568 30.9609 14.993V14.8945Z"/><path id="Vector_9" fill="url(#paint0_radial_94_18936)" d="M42 11.3226L38.7234 17.0461L37.7953 18.6773H35.5734L32.7609 24.007C32.9156 24.668 32.9859 25.343 32.9859 26.0461C32.9859 29.857 30.6094 33.1195 27.2625 34.4273C27.1641 34.4695 27.0516 34.5117 26.9531 34.5398L24 39.9539L21.0188 34.5398C20.9203 34.5117 20.8078 34.4695 20.7094 34.4273C17.3766 33.1055 15 29.857 15 26.0461C15 25.343 15.0844 24.668 15.225 24.007L12.4266 18.6773H10.2188L9.27656 17.0461L6 11.3226H15.4078L16.9406 14.3601L17.025 14.4164C17.025 14.4023 17.0531 14.3883 17.0531 14.3601C17.3766 10.8164 20.3578 8.04608 23.9859 8.04608C27.6141 8.04608 30.5953 10.8164 30.9187 14.3601C30.9187 14.3742 30.8766 14.3883 30.8766 14.4023L30.8625 14.3601L32.5922 11.3086H42V11.3226Z"/></g></g><defs><radialGradient id="paint0_radial_94_18936" cx="0" cy="0" r="1" gradientTransform="translate(6.408 11.677) scale(33.6192)" gradientUnits="userSpaceOnUse"><stop stop-color="white" stop-opacity="0.1"/><stop offset="1" stop-color="white" stop-opacity="0"/></radialGradient></defs></svg>

<svg xmlns="http://www.w3.org/2000/svg" fill="none" aria-hidden="true" viewBox="0 0 48 48"><path fill="#9E9E9E" d="m36.164 16.835-.872 1.842h2.49l.126-.21.914-1.632h-2.686.028Zm-24.37 0h-2.63l1.055 1.842h2.46l-.885-1.842Z"/><path fill="#424242" d="m42 11.323-3.277 5.723h-2.292l-3.67 6.961L24 39.954l-8.775-15.947-3.656-6.96H9.277L6 11.322h9.408l1.533 3.037 4.992 9.099 2.039 3.74 1.969-3.74 4.907-9.099 1.73-3.051"/><path fill="#fff" fill-opacity=".2" d="M15.52 11.52H6.112L6 11.323h9.408l.112.197Zm17.072-.197-.112.21h9.408l.112-.21h-9.408Z"/><path fill="#263238" fill-opacity=".2" d="m37.922 18.48-.112.211h-2.222l-2.813 5.33L24 39.954l-8.775-15.947-2.798-5.33h-2.222l-.113-.21h2.335l.112.21 2.686 5.12L24 39.756l8.775-15.947 2.7-5.119.113-.21"/><path fill="#fff" d="M27.473 26.046A3.472 3.472 0 0 1 24 29.52a3.48 3.48 0 0 1-3.474-3.474A3.48 3.48 0 0 1 24 22.573a3.463 3.463 0 0 1 3.473 3.473Zm-.408-10.631A3.073 3.073 0 0 1 24 18.48a3.073 3.073 0 0 1-3.066-3.066c0-1.688 1.378-3.08 3.066-3.08a3.076 3.076 0 0 1 3.065 3.08Z"/><path fill="#4285F4" d="M32.775 24.007a9.03 9.03 0 0 0-3.108-4.964 6.916 6.916 0 0 0 1.294-4.05 9.5 9.5 0 0 0-.028-.633A6.958 6.958 0 0 0 24 8.046c-3.628 0-6.61 2.77-6.919 6.314-.014.211-.028.422-.028.647 0 1.505.478 2.911 1.294 4.05a8.904 8.904 0 0 0-3.108 4.964A8.678 8.678 0 0 0 15 26.046a9.005 9.005 0 0 0 9 9 9.005 9.005 0 0 0 9-9c0-.703-.084-1.378-.225-2.039ZM24 12.547a2.872 2.872 0 0 1 2.869 2.868A2.863 2.863 0 0 1 24 18.284a2.872 2.872 0 0 1-2.869-2.87A2.872 2.872 0 0 1 24 12.547Zm0 16.776a3.28 3.28 0 0 1-3.277-3.277c0-1.055.493-1.983 1.266-2.587a3.221 3.221 0 0 1 2.011-.69c.76 0 1.462.254 2.01.69a3.265 3.265 0 0 1 1.267 2.587A3.27 3.27 0 0 1 24 29.323Z"/><path fill="#fff" fill-opacity=".2" d="M30.96 15.007v.098c-.07-3.796-3.15-6.848-6.96-6.848a6.954 6.954 0 0 0-6.96 6.848v-.098A6.959 6.959 0 0 1 24 8.047c3.84 0 6.96 3.107 6.96 6.96Zm-12.712 4.12A8.97 8.97 0 0 0 15 26.047v.098a8.956 8.956 0 0 1 3.347-6.891l.098-.07-.098-.127-.099.07Zm11.504 0-.085-.07-.098.127.098.084c2.011 1.631 3.319 4.106 3.347 6.89v-.112a9.028 9.028 0 0 0-3.262-6.919Z"/><path fill="#263238" fill-opacity=".2" d="M33 25.948v.098c0 4.964-4.036 9-9 9s-9-4.036-9-9v-.098c.056 4.921 4.064 8.901 9 8.901s8.944-3.98 9-8.901ZM17.04 14.895v.098c0 1.56.52 3.01 1.391 4.176a.426.426 0 0 0 .099-.07 6.945 6.945 0 0 1-1.49-4.204Zm13.92 0a6.978 6.978 0 0 1-1.49 4.204c.043.028.07.056.099.07a6.873 6.873 0 0 0 1.392-4.176v-.098Z"/><path fill="url(#a)" d="m42 11.323-3.277 5.723-.928 1.631h-2.222l-2.812 5.33c.155.661.225 1.336.225 2.04a9.004 9.004 0 0 1-6.033 8.493L24 39.954l-2.981-5.414a2.722 2.722 0 0 1-.31-.113C17.377 33.105 15 29.857 15 26.047c0-.704.084-1.379.225-2.04l-2.798-5.33h-2.208l-.942-1.63L6 11.322h9.408l1.533 3.037.084.056c0-.014.028-.028.028-.056a6.958 6.958 0 0 1 6.933-6.314c3.628 0 6.61 2.77 6.933 6.314 0 .014-.042.028-.042.042l-.014-.042 1.73-3.051H42v.014Z"/><defs><radialGradient id="a" cx="0" cy="0" r="1" gradientTransform="translate(6.408 11.677) scale(33.6192)" gradientUnits="userSpaceOnUse"><stop stop-color="#fff" stop-opacity=".1"/><stop offset="1" stop-color="#fff" stop-opacity="0"/></radialGradient></defs></svg>
